X: 14
T: Tommy Bhetty's 
M:3/4
R:
D:Altan  
L:1/8
Z:Alf 
K:G
D|:G2 GB dB|G2 GB dB|d2 b3a|g2 fg ef|
G2 GB dB|G2 GB dB|D2 F2 A2| c2 B2 A2|
G2 GB dB|G2 GB dB|d2 b3a|g2 fg ef|
dg3 Bc|cd dc AF|G2 B2 BA|[1G4zD:|[2 G3g fg||
|:a2 f2 d2| A2 F2 D2| C2 b3a|g2 fg ef|
d3e d2| B3A B2| D2 F2 A2| c2 B2 A2|
d2 Bc dB|db3 af|gb3 af|ga fg ef|
dg3 Bc|cd dc AF|G2 B2 BA|[1G3g fg:|[2G6|]
